assets/loader.svg

<svg xmlns="http://www.w3.org/2000/svg" width="889" height="281" fill="none"><g clip-path="url(#a)"><path fill="#fff" d="M250.003 99.829q16.05 0 28.05 7.2t18.3 19.5q6.45 12.3 6.45 27.3t-6.45 27.3q-6.3 12.3-18.3 19.5t-28.05 7.2-28.05-7.2-18.45-19.5q-6.3-12.3-6.3-27.3t6.3-27.3q6.45-12.3 18.45-19.5t28.05-7.2m0 90q9.9 0 17.25-4.8t11.25-12.9q3.9-8.25 3.9-18.3t-3.9-18.15q-3.9-8.25-11.25-13.05t-17.25-4.8-17.25 4.8-11.25 13.05q-3.9 8.1-3.9 18.15t3.9 18.3q3.9 8.1 11.25 12.9t17.25 4.8m103.071-88.8q18.9 0 30.9 7.2 12.15 7.05 17.7 19.05 5.55 11.85 5.55 26.55t-5.7 26.7q-5.7 11.85-17.85 19.05-12.15 7.05-30.6 7.05h-39.45v-105.6zm2.25 87.6q10.2 0 17.25-4.8 7.2-4.95 10.65-12.9 3.6-7.95 3.6-17.1t-3.6-17.1q-3.45-7.95-10.65-12.75-7.05-4.95-17.25-4.95h-21.3v69.6zm94.209-46.5q1.2 2.1 1.501 6.6 0 2.1 1.799 2.1 1.8 0 1.8-2.1.3-4.5 1.5-6.6l24.3-41.1h21.6l-39 64.2v41.4h-20.4v-41.4l-39-64.2h21.6zm156.654-16.8q3.45-3.75 7.5-5.25.45-.15.9-.45.45-.45.45-1.2 0-1.65-1.5-1.65l-1.2.3q-3.9 1.95-8.25 1.95h-51.75v-18h84v20.4l-53.85 60.9q-2.85 3.15-7.5 5.25-.45.15-.9.6-.45.3-.45 1.05 0 1.65 1.5 1.65l1.2-.3q4.5-1.95 8.25-1.95h51.75v18h-84v-20.4zm64.898-6.3v26.4h44.4v16.8h-44.4v26.4h54v18h-74.4v-105.6h74.4v18zm142.741 87.6-8.1-24h-43.8l-8.1 24h-22.8l38.4-105.6h28.8l38.4 105.6zm-13.65-40.8-12.15-36.15q-2.1-6.75-2.4-15 0-2.1-1.8-2.1t-1.8 2.1q-.3 8.25-2.4 15l-12.15 36.15z"/><path fill="#FF5C00" fill-rule="evenodd" d="M76.532 143.021c24.94-50.103 77.255-56.655 101.816-47.832 1.884.677 4.026-.479 4.273-2.422 3.869-30.416 4.331-32.47 11.529-49.987.581-1.414-.081-3.036-1.508-3.658l-4.303-1.875a2.97 2.97 0 0 0-3.08.437l-17.397 14.563a2.965 2.965 0 0 1-3.598.145l-15.017-10.6c-1.241-.876-2.966-.663-3.943.487L130.64 59.528a2.95 2.95 0 0 1-3.067.908l-20.978-6.078c-1.317-.381-2.728.188-3.383 1.365L80.349 96.767c-36.345 56.355-30.608 87.014-25.805 98.887 25.805 63.798 107.507 33.494 111.578 24.279 3.773-8.543-2.156-9.522-5.744-9.431a2.8 2.8 0 0 0-1.461.484c-46.191 30.674-118.555 4.7-82.385-67.965m33.983 51.748c-.588-3.439 2.862-6.761 6.895-5.193 1.465.571 2.363 1.845 3.272 3.136.457.649.917 1.302 1.453 1.871 3.232 3.434 9.142 2.624 18.909-3.004l.126-.065c1.463-.751 6.508-3.341 8.052-.999 1.283 1.948.178 4.66-1.47 7.022-.886 1.27-2.084 2.294-3.435 3.082-5.692 3.321-15.896 7.582-23.989 4.074-2.666-1.181-8.796-3.97-9.813-9.924m43.841-22.98c9.5 2.409 20.379-7.556 24.297-22.257 3.919-14.701-.606-28.571-10.107-30.979s-20.378 7.557-24.297 22.257c-3.918 14.701.606 28.571 10.107 30.979m2.102-5.568c3.592.911 7.706-2.858 9.188-8.417 1.482-5.56-.229-10.805-3.822-11.715s-7.707 2.857-9.188 8.417.229 10.804 3.822 11.715m-28.962-14.283c-3.525 13.223-14.084 21.989-23.584 19.581s-14.345-15.08-10.82-28.302c3.524-13.223 14.083-21.99 23.583-19.581 9.501 2.408 14.345 15.08 10.821 28.302m-10.557 5.866c-1.482 5.559-5.596 9.328-9.189 8.417s-5.304-6.156-3.822-11.715 5.596-9.328 9.189-8.417 5.304 6.155 3.822 11.715" clip-rule="evenodd"/></g><defs><clipPath id="a"><path fill="#fff" d="M0 0h889v281H0z"/></clipPath></defs></svg>

<svg width="889" height="281" viewBox="0 0 889 281" fill="none" xmlns="http://www.w3.org/2000/svg">
<g clip-path="url(#clip0_103_2)">
<path d="M250.003 99.8289C260.703 99.8289 270.053 102.229 278.053 107.029C286.053 111.829 292.153 118.329 296.353 126.529C300.653 134.729 302.803 143.829 302.803 153.829C302.803 163.829 300.653 172.929 296.353 181.129C292.153 189.329 286.053 195.829 278.053 200.629C270.053 205.429 260.703 207.829 250.003 207.829C239.303 207.829 229.953 205.429 221.953 200.629C213.953 195.829 207.803 189.329 203.503 181.129C199.303 172.929 197.203 163.829 197.203 153.829C197.203 143.829 199.303 134.729 203.503 126.529C207.803 118.329 213.953 111.829 221.953 107.029C229.953 102.229 239.303 99.8289 250.003 99.8289ZM250.003 189.829C256.603 189.829 262.353 188.229 267.253 185.029C272.153 181.829 275.903 177.529 278.503 172.129C281.103 166.629 282.403 160.529 282.403 153.829C282.403 147.129 281.103 141.079 278.503 135.679C275.903 130.179 272.153 125.829 267.253 122.629C262.353 119.429 256.603 117.829 250.003 117.829C243.403 117.829 237.653 119.429 232.753 122.629C227.853 125.829 224.103 130.179 221.503 135.679C218.903 141.079 217.603 147.129 217.603 153.829C217.603 160.529 218.903 166.629 221.503 172.129C224.103 177.529 227.853 181.829 232.753 185.029C237.653 188.229 243.403 189.829 250.003 189.829ZM353.074 101.029C365.674 101.029 375.974 103.429 383.974 108.229C392.074 112.929 397.974 119.279 401.674 127.279C405.374 135.179 407.224 144.029 407.224 153.829C407.224 163.629 405.324 172.529 401.524 180.529C397.724 188.429 391.774 194.779 383.674 199.579C375.574 204.279 365.374 206.629 353.074 206.629H313.624V101.029H353.074ZM355.324 188.629C362.124 188.629 367.874 187.029 372.574 183.829C377.374 180.529 380.924 176.229 383.224 170.929C385.624 165.629 386.824 159.929 386.824 153.829C386.824 147.729 385.624 142.029 383.224 136.729C380.924 131.429 377.374 127.179 372.574 123.979C367.874 120.679 362.124 119.029 355.324 119.029H334.024V188.629H355.324ZM449.533 142.129C450.333 143.529 450.833 145.729 451.034 148.729C451.034 150.129 451.634 150.829 452.833 150.829C454.033 150.829 454.633 150.129 454.633 148.729C454.833 145.729 455.333 143.529 456.133 142.129L480.433 101.029H502.033L463.033 165.229V206.629H442.633V165.229L403.633 101.029H425.233L449.533 142.129ZM606.187 125.329C608.487 122.829 610.987 121.079 613.687 120.079C613.987 119.979 614.287 119.829 614.587 119.629C614.887 119.329 615.037 118.929 615.037 118.429C615.037 117.329 614.537 116.779 613.537 116.779L612.337 117.079C609.737 118.379 606.987 119.029 604.087 119.029H552.337V101.029H636.337V121.429L582.487 182.329C580.587 184.429 578.087 186.179 574.987 187.579C574.687 187.679 574.387 187.879 574.087 188.179C573.787 188.379 573.637 188.729 573.637 189.229C573.637 190.329 574.137 190.879 575.137 190.879L576.337 190.579C579.337 189.279 582.087 188.629 584.587 188.629H636.337V206.629H552.337V186.229L606.187 125.329ZM671.085 119.029V145.429H715.485V162.229H671.085V188.629H725.085V206.629H650.685V101.029H725.085V119.029H671.085ZM813.826 206.629L805.726 182.629H761.926L753.826 206.629H731.026L769.426 101.029H798.226L836.626 206.629H813.826ZM800.176 165.829L788.026 129.679C786.626 125.179 785.826 120.179 785.626 114.679C785.626 113.279 785.026 112.579 783.826 112.579C782.626 112.579 782.026 113.279 782.026 114.679C781.826 120.179 781.026 125.179 779.626 129.679L767.476 165.829H800.176Z" fill="white"/>
<path fill-rule="evenodd" clip-rule="evenodd" d="M76.5323 143.021C101.472 92.9177 153.787 86.3656 178.348 95.1894C180.232 95.8662 182.374 94.7103 182.621 92.7673C186.49 62.3512 186.952 60.2966 194.15 42.7803C194.731 41.3659 194.069 39.7436 192.642 39.122L188.339 37.2468C187.312 36.7992 186.112 36.9695 185.259 37.684L167.862 52.2468C166.842 53.1012 165.353 53.1613 164.264 52.3922L149.247 41.7921C148.006 40.9163 146.281 41.1294 145.304 42.2793L130.64 59.528C129.896 60.4023 128.69 60.7598 127.573 60.4363L106.595 54.3581C105.278 53.9766 103.867 54.5457 103.212 55.7227L80.3488 96.7674C44.0036 153.122 49.7412 183.781 54.5439 195.654C80.3488 259.452 162.051 229.148 166.122 219.933C169.895 211.39 163.966 210.411 160.378 210.502C159.854 210.516 159.35 210.698 158.917 210.986C112.726 241.66 40.3617 215.686 76.5323 143.021ZM110.515 194.769C109.927 191.33 113.377 188.008 117.41 189.576C118.875 190.147 119.773 191.421 120.682 192.712C121.139 193.361 121.599 194.014 122.135 194.583C125.367 198.017 131.277 197.207 141.044 191.579L141.17 191.514C142.633 190.763 147.678 188.173 149.222 190.515C150.505 192.463 149.4 195.175 147.752 197.537C146.866 198.807 145.668 199.831 144.317 200.619C138.625 203.94 128.421 208.201 120.328 204.693C117.662 203.512 111.532 200.723 110.515 194.769ZM154.356 171.789C163.856 174.198 174.735 164.233 178.653 149.532C182.572 134.831 178.047 120.961 168.546 118.553C159.046 116.145 148.168 126.11 144.249 140.81C140.331 155.511 144.855 169.381 154.356 171.789ZM156.458 166.221C160.05 167.132 164.164 163.363 165.646 157.804C167.128 152.244 165.417 146.999 161.824 146.089C158.231 145.178 154.117 148.946 152.636 154.506C151.154 160.065 152.865 165.31 156.458 166.221ZM127.496 151.938C123.971 165.161 113.412 173.927 103.912 171.519C94.4114 169.11 89.567 156.439 93.0916 143.217C96.6162 129.994 107.175 121.227 116.675 123.636C126.176 126.044 131.02 138.716 127.496 151.938ZM116.939 157.804C115.457 163.363 111.343 167.132 107.75 166.221C104.157 165.31 102.446 160.065 103.928 154.506C105.41 148.946 109.524 145.178 113.117 146.089C116.709 146.999 118.421 152.244 116.939 157.804Z" fill="#FF5C00"/>
</g>
<defs>
<clipPath id="clip0_103_2">
<rect width="889" height="281" fill="white"/>
</clipPath>
</defs>
</svg>
